X:1
T:Oklahoma Rag
N:From the playing of fiddler Bob Wills (1905-1975, Texas)
M:C|
L:1/8
R:Country Rag
D: https://www.slippery-hill.com/recording/oklahoma-rag
D: https://www.youtube.com/watch?v=yRBMeWmRn74
D:Vocalion 03295 (78 RPM), Bob Wills & His Texas Playboys (1936)
D:Kaleidescope F-27,  Bob Wills - Tiffany Transcriptions vol. 6 (1987)
Z:Transcribed by Andrew Kuntz
K:F
D2-|FGAc- cd (c/d/A)|d-cdc- cd (c/d/A)|FGAd- dAcd|B4- BcBG|
CDEF GFGB|eded- ded2|c=Bcd- dcd[^G=B]-|[A4c4]- [Ac]d([Ac]A)|
FGAc- cd (c/d/A)|d-cdc- cd(cA)|a2gb- bga2|[M:3/2](gfe2) d4- d3d |
[M:C|]f-efg-|ac'ag |fefd- d2cd2(=B-|(c a2))e  gaga|f8||
f4d4|c4-  cdcA|FGAd- dcAc|B8|
g4 f4|+slide+[e4g4]- [eg][ea][eg]e|[c3e3]A dcdA|[^G=B]-[A3c3]- ([A3c3]A)|
[c4f4]d4|c4 a2ga- |aga2 g2-f2| d4- d4|
fefg- abag|fefd- dcde|=B-a2f gaga|f8||

